packages/components/Atoms/Icon/assets/img/rpl_icon_calendar.svg

<svg width="18" height="18" overflow="visible" xmlns="http://www.w3.org/2000/svg"><path fill-rule="evenodd" clip-rule="evenodd" d="M2 16h14V5H2v11zM17 2h-2v-.99C15 .452 14.553 0 14 0c-.553 0-1 .452-1 1.01V2H5v-.99C5 .452 4.553 0 4 0c-.553 0-1 .452-1 1.01V2H1a1 1 0 00-1 1v14a1 1 0 001 1h16a1 1 0 001-1V3a1 1 0 00-1-1zm-7 12.021h4v-4h-4v4z" fill="inherit"/></svg>

<svg width="18" height="18" viewBox="0 0 18 18" overflow="visible" xmlns="http://www.w3.org/2000/svg">
  <path fill-rule="evenodd" clip-rule="evenodd" d="M2 16H16V5H2V16ZM17 2H15V1.01C15 0.452 14.553 0 14 0C13.447 0 13 0.452 13 1.01V2H5V1.01C5 0.452 4.553 0 4 0C3.447 0 3 0.452 3 1.01V2H1C0.447 2 0 2.447 0 3V17C0 17.552 0.447 18 1 18H17C17.553 18 18 17.552 18 17V3C18 2.447 17.553 2 17 2ZM10 14.021H14V10.021H10V14.021Z"
    fill="inherit" />
</svg>
